libs/ui/packages/crypto-icons/src/svg/SLR.svg

<svg width="24" height="24" viewBox="0 0 24 24" fill="none">
<path d="M9.31551 16.5C9.40326 16.773 10.4893 17.898 11.6195 17.898C13.295 17.898 14.2738 16.887 14.2738 15.4245C14.2738 14.07 13.5958 13.296 11.8828 12.543C9.81201 11.7045 8.53176 10.4782 8.53176 8.43525C8.53176 6.17775 10.1698 4.5 12.6358 4.5C13.9348 4.5 15.251 5.3175 15.6875 5.8635L14.6398 6.95475C14.2258 6.69675 13.7285 6.048 12.5795 6.048C10.8478 6.048 10.1885 7.23075 10.1885 8.22C10.1885 9.57525 10.961 10.242 12.7108 11.016C14.8573 11.9625 15.9493 13.1452 15.9493 15.2738C15.9493 17.511 14.4913 19.5 11.498 19.5C10.274 19.5 8.96676 18.6825 8.18076 17.682L9.31551 16.5ZM10.712 8.77275C10.4503 8.2275 10.625 7.68225 10.625 7.68225C17.258 6.591 16.0363 13.0448 16.0363 13.0448C15.5128 12.0457 14.9893 11.8635 14.9893 11.8635C15.0763 8.136 10.712 8.77275 10.712 8.77275ZM13.6798 14.682C13.9423 15.3188 13.6393 15.981 13.6393 15.981C6.08676 16.9545 8.12676 10.0485 8.12451 10.0485C8.52501 11.109 9.02301 11.3572 9.02301 11.3572C8.88051 15.6817 13.6798 14.682 13.6798 14.682Z" fill="#FDA616"/>
</svg>

<svg width="24" height="24" viewBox="0 0 24 24" fill="none"><path fill="#fda616" d="M9.316 16.5c.087.273 1.173 1.398 2.303 1.398 1.676 0 2.655-1.011 2.655-2.473 0-1.355-.678-2.129-2.391-2.882-2.071-.838-3.351-2.065-3.351-4.108 0-2.257 1.638-3.935 4.104-3.935 1.299 0 2.615.817 3.052 1.364l-1.048 1.09c-.414-.257-.912-.906-2.06-.906-1.732 0-2.392 1.183-2.392 2.172 0 1.355.773 2.022 2.523 2.796 2.146.947 3.238 2.13 3.238 4.258 0 2.237-1.458 4.226-4.451 4.226-1.224 0-2.531-.817-3.317-1.818zm1.396-7.727c-.262-.546-.087-1.09-.087-1.09 6.633-1.092 5.411 5.362 5.411 5.362-.523-1-1.047-1.181-1.047-1.181.087-3.728-4.277-3.091-4.277-3.091m2.968 5.909c.262.637-.04 1.299-.04 1.299-7.553.973-5.513-5.932-5.515-5.932.4 1.06.898 1.308.898 1.308-.142 4.325 4.657 3.325 4.657 3.325"/></svg>
